X:12
T:Templecross Hornpipe, The
S:Treoir, 1993. 
C:R.L. O'Mealy
I:speed 250
M:C
K:D
|:AF | FGAF D3F | defd (3Bcd AG | FAdf {a}gfed | (3Bcd ef e2 AG |
FGAF D2 (3AAA | defd (3Bcd AG | FAdf {a}gfed |[1dfec d2:|[2d2(3fgf d2||
(3ABc | d2 fd ec (3ABc | d2 fd ecAG | FAdf {a}gfed | (3Bcd ef e2 (3ABc |
d2 fd ec (3ABc | d2fd ecAG | FAdf {a}gfed | dfec d2 (3ABc |
d2 fd ec (3ABc | d2 fd ecAG | FAdf {a}gfed | (3Bcd ef e2 AG |
FGAF D2 (3AAA | defd (3Bcd AG  | FAdf {a}gfec | dfec d2||
